editor/icons/Quaternion.svg

<svg height="12" viewBox="0 0 16 12" width="16" xmlns="http://www.w3.org/2000/svg"><path d="m3 3a3 3 0 0 0 -3 3 3 3 0 0 0 3 3v2h2v-2.7695a3 3 0 0 0 2 .76953h2v-6h-2v4a1 1 0 0 1 -1-1v-3h-2zm0 2v2a1 1 0 0 1 -1-1 1 1 0 0 1 1-1z" fill="#ec418e"/><path d="m4 3v3a3 3 0 0 0 3 3h2v-6h-2v4a1 1 0 0 1 -1-1v-3z" fill="#fff" fill-opacity=".39216"/><path d="m13 1v2h-2a3 3 0 0 0 -3 3 3 3 0 0 0 3 3h2v-3a3 3 0 0 0 3 3v-2a1 1 0 0 1 -1-1v-1h1v-2h-1v-2zm-2 4v2a1 1 0 0 1 -1-1 1 1 0 0 1 1-1z" fill="#ec418e"/></svg>

<svg height="12" viewBox="0 0 16 12" width="16" xmlns="http://www.w3.org/2000/svg"><path d="M3 3a3 3 0 0 0 0 6v2h2V8.236A3 3 0 0 0 7 9h2v-.764A3 3 0 0 0 11 9h2V6a3 3 0 0 0 3 3V7a1 1 0 0 1-1-1V5h1V3h-1V1h-2v2h-2a3 3 0 0 0-2 .764V3H7v4a1 1 0 0 1-1-1V3zm0 4a1 1 0 0 1 0-2zm8 0a1 1 0 0 1 0-2z" fill="#ec418e"/><path d="M4 3v3a3 3 0 0 0 3 3h2V3H7v4a1 1 0 0 1-1-1V3z" fill="#fff" fill-opacity=".4"/></svg>
